X:35
T:35 Pleal's Allemand
C:Aylmore MS
I:abc2nwc
M:2/4
L:1/16
K:C
e2fe d2ed|c4G2c2|d2d2 d2d2|g4e4|e2fe d2ed|c4G2c2|d2d2 dcde|c4z4:|
g2g2 b4|g2g2 c'4|f2e2 f2g2|e4c4|g2g2 b4|g2g2 c'4|f2d2 e2c2|c4z4:|


